X: 1
T: Levantine's Barrel
M: 4/4
L: 1/8
R: reel
K: Dmaj
fe|dfAd ~f3e|dfba gfed|ceAc eAce|defg ~a3f|
dfAd ~f3e|dfba gfed|ceAc eAce|1 def2 d2:|2 def2 d3||
|:A|~B3c d2cB|ABAE F2ed|ceAc eAce|defg ~a3f|
~B3c d2cB|ABAE F2ed|ceAc eAce|1 def2 d3:|2 def2 d2||
